X: 37441
T: Sliabh Lucan, The
R: polka
M: 2/4
K: Amajor
|:A/B/|ce ef|ec BA|ef/e/ cA|c/B/A F>A|
ce ef|ec BA|ef/e/ cA|c/B/A A:|
|:g|a2 e>a|fe c/e/c/B/|AB ce|g/f/e ce|
a2 e>a|fe c>B|Aa ag|f2 fg|
a2 e>a|fe c>B|AB ce|fe ce|
a2 g2|fg/f/ e2|f/g/a/f/ ec|B2 B||

